X:1
Q:1/4=114
L:1/8
M:2/4
K:C clef=G2
V:1
%%MIDI program 52
G2-G31/32D31/32|d31/16B31/32A31/32|G31/16A31/16|G31/16^F31/16|
G4-|G62/16|D62/16|B31/32G31/32A31/32d31/32|
G4-|G62/16|D31/32B,31/32E31/32G31/32|E31/16B,31/16|
A,31/32A,2-A,31/32|G,31/32G,3-|G,31/16z2|D31/32D31/32D31/32E31/64D31/64|
B,31/32D31/32E31/32G31/32|E62/16|B31/32d31/32B31/32A31/32|G31/32E31/32E31/16|
E31/32D31/32E31/32G31/32|B,31/16D31/16|A,62/16|D62/16|
B31/32G31/32A31/32d31/32|G4-|G62/16
L:1/8
M:2/4
K:C clef=F4
V:2
%%MIDI program 0
[G,-B,-D-G-]2[G,B,DG]7/8z3/16[G,B,D]15/16|[D^FBd]15/8[E-G-B]15/16[A-EG]7/8|[A,CEG]15/8[A,CEA]15/8|[B,DG]15/8[A,D^F]15/8|
[G,-D-G-]4|[G,DG]14/4z7/16|[B,D]30/8z7/32|[DGB]15/16[B,DG]15/16[B,^FA]15/16[B,^Fd]15/16|
[B,-E-G-]4|[B,EG]14/4z7/16|[^F,B,D]15/16[^F,B,]15/16[G,B,E]15/16[G,B,G]15/16|[G,B,E]15/8[G,B,]15/8|
[A,E,G,]15/8[^F,A,]7/4|[D,-G,-]4|[D,-G,-]3/2[D,G,]3/16z2z3/8|[B,D]15/16[B,D]15/16[B,-D]15/16[B,-E]15/32[D-B,]3/8|
[B,G,]15/16D15/16[G,-B,-E]15/16[G-G,B,]7/8|[EG,B,]30/8z7/32|[D-^F-B]15/16[d-D^F]7/8[D-^F-B]15/16[A-D^F]7/8|[B,EG]15/16[G,B,E]15/16[G,CE]15/8|
[G,-B,-E]15/16[D-G,B,]7/8[G,-B,-E]15/16[G-G,B,]7/8|[G,B,]15/8[G,B,D]15/8|[E,G,A,]30/8z7/32|[D,G,D]30/8z7/32|
[D^FB]15/16[B,G]15/16[CGA]15/16[C^Fd]15/16|[B,-D-G-]4|[B,DG]14/4(5:4z/2
L:1/8
M:2/4
K:C clef=F4
V:3
%%MIDI program 0
[G,,,-G,,-]2[G,,,G,,]7/8z3/16[G,,,G,,]15/16|[B,,,B,,]15/8[E,,E,]15/8|[A,,,A,,]15/16[B,,,B,,]15/16[C,,C,]15/16[A,,,A,,]15/16|[D,,D,]15/8[D,,D,]15/16[C,,C,]15/16|
[B,,,-B,,-]2[B,,,B,,]7/8z3/16[E,,E,]15/16|[D,,D,]15/16[C,,C,]15/16[B,,,B,,]15/16[A,,,A,,]15/16|[G,,,G,,]15/8[G,,G,]15/8|[D,,D,]15/8[^D,,^D,]15/8|
[E,,E,]30/8z7/32|[E,,,E,,]15/8[G,,,G,,]15/16[A,,,A,,]15/16|[B,,,B,,]15/16[D,,D,]15/16[E,,E,]15/8|[C,,C,]15/16[D,,D,]15/16[E,,E,]15/8|
[C,,C,]15/8[D,,D,]15/8|[G,,-B,,-]4|[G,,-B,,-]3/2[G,,B,,]3/16z2z3/8|[G,,G,]15/8[G,,G,]15/8|
[G,,G,]15/8[D,,D,]15/8|[E,,E,]15/8[D,,D,]15/8|[B,,,B,,]15/8[B,,,B,,]15/8|[E,,E,]15/8[C,,C,]15/8|
[E,,E,]15/8[E,,E,]15/8|[D,,D,]15/8[B,,,B,,]15/8|[C,,C,]30/8z7/32|[B,,,B,,]15/8[G,,,G,,]15/8|
[D,,D,]15/8[E,,E,]15/8|[G,,G,]30/8z7/32|[G,,,G,,]30/8(5:4z/4


